src/assets/projects/icon-roles.svg

<svg fill="none" height="16" viewBox="0 0 16 16" width="16" xmlns="http://www.w3.org/2000/svg"><path clip-rule="evenodd" d="m6.48777 4.00285c-.04083-.24228-.07159-.48182-.09146-.72138-.02995-.35934-.01144-.72144-.02205-1.08078-.00463-.15245-.02287-.5499-.01552-.60707.06669-.49818.46878-.57441.58638-.58803.0569-.008163.6411-.073469.76714.57444.15463.79219.20418 1.58981.14946 2.37112.12768.66424.34601 1.32574.6343 1.92465 1.14718 2.38201 3.33318 2.61342 5.70158 2.59164.3643-.00545.6667.28039.6858.64246.019.36479-.2521.68057-.6147.71324-1.3239.12795-3.6727 1.18966-4.48477 2.29496-.16987.2314-.26868.7894-.39935 1.3366-.1824.7595-.39936 1.5109-.64246 1.8267-.03648.049-.47995.5499-.61226.6234-.31796.1742-.57249.0735-.71704-.0191-.14456-.0925-.30817-.2749-.37351-.5771-.06833-.3158-.01061-.9637-.02123-1.1026-.03866-.5036-.13937-1.4918-.34491-2.3411-.1108-.4574-.22895-.8793-.42441-1.089-.72359-.7758-1.88057-.6615-2.85488-.5335-.11189.0136-.22377.0299-.33539.0436-.39664.117-.81779.2041-1.26289.2558-.67213.079-.78265-.539-.78864-.57982-.012522-.08984-.059078-.55262.44754-.73773.05527-.01906.46307-.1089.62015-.14429.21887-.04901.44019-.0871.66233-.12249 2.29463-.71325 3.5409-2.71688 3.75079-4.95462zm.78757 2.4746c.86624 1.79128 2.18083 2.65696 3.73906 3.04897h-.0002c-.973.50908-1.85803 1.14608-2.32708 1.78588-.17804.2422-.34137.7295-.48865 1.2767-.07976-.5091-.18756-1.0508-.32994-1.5136-.16197-.5281-.38004-.9664-.62342-1.22774-.46987-.50362-1.05952-.78402-1.69354-.92286.75898-.67241 1.33448-1.51088 1.72377-2.44735z" fill="#888" fill-rule="evenodd"/></svg>

<svg width="16" height="16" viewBox="0 0 16 16" fill="none" xmlns="http://www.w3.org/2000/svg">
<path fill-rule="evenodd" clip-rule="evenodd" d="M6.48777 4.00285C6.44694 3.76057 6.41618 3.52103 6.39631 3.28147C6.36636 2.92213 6.38487 2.56003 6.37426 2.20069C6.36963 2.04824 6.35139 1.65079 6.35874 1.59362C6.42543 1.09544 6.82752 1.01921 6.94512 1.00559C7.00202 0.997427 7.58622 0.932121 7.71226 1.58003C7.86689 2.37222 7.91644 3.16984 7.86172 3.95115C7.9894 4.61539 8.20773 5.27689 8.49602 5.8758C9.6432 8.25781 11.8292 8.48922 14.1976 8.46744C14.5619 8.46199 14.8643 8.74783 14.8834 9.1099C14.9024 9.47469 14.6313 9.79047 14.2687 9.82314C12.9448 9.95109 10.596 11.0128 9.78393 12.1181C9.61406 12.3495 9.51525 12.9075 9.38458 13.4547C9.20218 14.2142 8.98522 14.9656 8.74212 15.2814C8.70564 15.3304 8.26217 15.8313 8.12986 15.9048C7.8119 16.079 7.55737 15.9783 7.41282 15.8857C7.26826 15.7932 7.10465 15.6108 7.03931 15.3086C6.97098 14.9928 7.0287 14.3449 7.01808 14.206C6.97942 13.7024 6.87871 12.7142 6.67317 11.8649C6.56237 11.4075 6.44422 10.9856 6.24876 10.7759C5.52517 10.0001 4.36819 10.1144 3.39388 10.2424C3.28199 10.256 3.17011 10.2723 3.05849 10.286C2.66185 10.403 2.2407 10.4901 1.7956 10.5418C1.12347 10.6208 1.01295 10.0028 1.00696 9.96198C0.994438 9.87214 0.947882 9.40936 1.4545 9.22425C1.50977 9.20519 1.91757 9.11535 2.07465 9.07996C2.29352 9.03095 2.51484 8.99286 2.73698 8.95747C5.03161 8.24422 6.27788 6.24059 6.48777 4.00285ZM7.27534 6.47745C8.14158 8.26873 9.45617 9.13441 11.0144 9.52642H11.0142C10.0412 10.0355 9.15617 10.6725 8.68712 11.3123C8.50908 11.5545 8.34575 12.0418 8.19847 12.589C8.11871 12.0799 8.01091 11.5382 7.86853 11.0754C7.70656 10.5473 7.48849 10.109 7.24511 9.84766C6.77524 9.34404 6.18559 9.06364 5.55157 8.9248C6.31055 8.25239 6.88605 7.41392 7.27534 6.47745Z" fill="#888888"/>
</svg>
